src/Netnr.P/Netnr.ScriptService/wwwroot/icon/free.svg

<?xml version="1.0" standalone="no"?><!DOCTYPE svg PUBLIC "-//W3C//DTD SVG 1.1//EN" "http://www.w3.org/Graphics/SVG/1.1/DTD/svg11.dtd"><svg t="1600398915202" class="icon" viewBox="0 0 1024 1024" version="1.1" xmlns="http://www.w3.org/2000/svg" p-id="10295" xmlns:xlink="http://www.w3.org/1999/xlink" width="200" height="200"><defs><style type="text/css"></style></defs><path d="M511.765151 5.714142c-280.06151 0-507.095293 227.034806-507.095293 507.096317s227.034806 507.096317 507.095293 507.096317c280.062534 0 507.096317-227.034806 507.096317-507.096317S791.827685 5.714142 511.765151 5.714142zM273.833157 443.237917 169.436482 443.237917l0 42.216497 96.776114 0 0 43.891649-96.776114 0 0 96.92961-58.217936 0L111.218546 399.345244l162.614611 0L273.833157 443.237917zM453.484793 626.27465l-61.736063-83.21219-27.113521 0 0 83.21219-58.217936 0L306.417273 399.345244l98.148367 0c13.411451 0 24.942065 0.762363 34.595936 2.286066 9.651824 1.523703 18.693758 4.826935 27.127847 9.906627 8.534374 5.081739 15.315824 11.659551 20.345374 19.735483 5.02955 8.077979 7.543813 18.212804 7.543813 30.405497 0 16.763802-3.886517 30.430056-11.658528 40.996716-7.773034 10.567683-18.874883 19.354813-33.30043 26.365484l75.745125 97.234555L453.484793 626.275673zM706.903503 443.237917 600.983125 443.237917l0 39.168068 98.30084 0 0 43.891649-98.30084 0 0 56.085366L706.903503 582.383l0 43.892673-164.138314 0L542.765189 399.345244l164.138314 0L706.903503 443.237917zM904.693242 482.405985l0 43.891649-98.30084 0 0 56.085366 105.920378 0 0 43.892673-164.138314 0L748.174466 399.345244l164.138314 0 0 43.892673L806.392402 443.237917l0 39.168068L904.693242 482.405985z" p-id="10296" fill="#ea9518"></path><path d="M418.128541 444.61017c-3.962242-1.623987-8.587586-2.615571-13.868869-2.971681-5.284353-0.355087-11.43033-0.533143-18.441001-0.533143l-21.184485 0 0 61.113893 17.983583 0c9.346879 0 17.169031-0.456395 23.470551-1.37123 6.29845-0.914836 11.582803-2.996241 15.84999-6.248308 4.062526-3.14769 7.03523-6.630001 8.916067-10.43977 1.87879-3.809769 2.819209-8.915044 2.819209-15.316847 0-5.688559-1.169639-10.565636-3.505847-14.630209C427.830507 450.148303 423.818123 446.948425 418.128541 444.61017z" p-id="10297" fill="#ea9518"></path></svg>

<svg viewBox="0 0 1024 1024" xmlns="http://www.w3.org/2000/svg" width="200" height="200"><path d="M511.765 5.714C231.704 5.714 4.67 232.75 4.67 512.81s227.035 507.097 507.095 507.097c280.063 0 507.096-227.035 507.096-507.097S791.828 5.714 511.765 5.714zM273.833 443.238H169.436v42.216h96.777v43.892h-96.777v96.93H111.22v-226.93h162.614v43.892zm179.652 183.037-61.736-83.213h-27.114v83.213h-58.218v-226.93h98.149c13.411 0 24.942.763 34.596 2.286 9.651 1.524 18.693 4.827 27.127 9.907 8.535 5.082 15.316 11.66 20.346 19.735 5.03 8.078 7.544 18.213 7.544 30.406 0 16.764-3.887 30.43-11.659 40.997-7.773 10.567-18.875 19.354-33.3 26.365l75.745 97.235h-71.48zm253.419-183.037h-105.92v39.168h98.3v43.892h-98.3v56.085h105.92v43.893H542.765v-226.93h164.139v43.892zm197.79 39.168v43.892h-98.302v56.085h105.92v43.893H748.175v-226.93h164.139v43.892h-105.92v39.168h98.3z" fill="#ea9518"/><path d="M418.129 444.61c-3.963-1.624-8.588-2.615-13.87-2.972-5.284-.355-11.43-.533-18.44-.533h-21.185v61.114h17.984c9.347 0 17.169-.456 23.47-1.371 6.299-.915 11.583-2.996 15.85-6.248 4.063-3.148 7.036-6.63 8.916-10.44 1.88-3.81 2.82-8.915 2.82-15.317 0-5.688-1.17-10.566-3.506-14.63-2.337-4.065-6.35-7.265-12.04-9.603z" fill="#ea9518"/></svg>
